svgs/light/rss.svg

<svg xmlns="http://www.w3.org/2000/svg" viewBox="0 0 448 512"><!-- Font Awesome Pro 6.0.0-alpha2 by @fontawesome - https://fontawesome.com License - https://fontawesome.com/license (Commercial License) --><path d="M80 320C35.875 320 0 355.875 0 400S35.875 480 80 480S160 444.125 160 400S124.125 320 80 320ZM80 448C53.5 448 32 426.5 32 400S53.5 352 80 352S128 373.5 128 400S106.5 448 80 448ZM16 32C7.156 32 0 39.156 0 48S7.156 64 16 64C236.562 64 416 243.438 416 464C416 472.844 423.156 480 432 480S448 472.844 448 464C448 225.781 254.203 32 16 32ZM16 176C7.156 176 0 183.156 0 192S7.156 208 16 208C157.156 208 272 322.844 272 464C272 472.844 279.156 480 288 480S304 472.844 304 464C304 305.188 174.797 176 16 176Z"/></svg>

<svg xmlns="http://www.w3.org/2000/svg" viewBox="0 0 448 512"><!--! Font Awesome Pro 6.3.0 by @fontawesome - https://fontawesome.com License - https://fontawesome.com/license (Commercial License) Copyright 2023 Fonticons, Inc. --><path d="M16 32C7.2 32 0 39.2 0 48s7.2 16 16 16c220.9 0 400 179.1 400 400c0 8.8 7.2 16 16 16s16-7.2 16-16C448 225.4 254.6 32 16 32zm0 144c-8.8 0-16 7.2-16 16s7.2 16 16 16c141.4 0 256 114.6 256 256c0 8.8 7.2 16 16 16s16-7.2 16-16c0-159.1-128.9-288-288-288zM32 416a32 32 0 1 1 64 0 32 32 0 1 1 -64 0zm96 0A64 64 0 1 0 0 416a64 64 0 1 0 128 0z"/></svg>
